icons/svg/emoji-heart_16.svg

<?xml version="1.0" encoding="UTF-8"?>
<svg width="16px" height="16px" viewBox="0 0 16 16" version="1.1" xmlns="http://www.w3.org/2000/svg" xmlns:xlink="http://www.w3.org/1999/xlink">
    <!-- Generator: Sketch 59.1 (86144) - https://sketch.com -->
    <title>emoji-heart_16</title>
    <desc>Created with Sketch.</desc>
    <g id="New-Icon" stroke="none" stroke-width="1" fill="none" fill-rule="evenodd">
        <g id="emoji-heart_16" fill="#171B1F">
            <path d="M4.2184,2.0152 C3.4214,2.0152 2.6724,2.3112 2.1014,2.8532 C0.6794,4.2032 0.6204,6.5482 1.9714,7.9732 L7.4634,13.7642 C7.7514,14.0682 8.2424,14.0682 8.5314,13.7642 L12.9604,9.0932 C12.9754,9.0702 12.9934,9.0492 13.0124,9.0292 L14.0294,7.9572 C15.3804,6.5322 15.3204,4.1882 13.8984,2.8382 L13.8994,2.8382 C13.3074,2.2762 12.5184,1.9772 11.6964,2.0012 C10.7794,2.0252 9.8774,2.4362 9.2194,3.1292 L8.3564,4.0392 C8.1674,4.2392 7.8184,4.2392 7.6294,4.0392 L6.7814,3.1442 C6.1224,2.4522 5.2194,2.0402 4.3024,2.0162 C4.2744,2.0152 4.2464,2.0152 4.2184,2.0152 M7.9974,14.9992 C7.5194,14.9992 7.0714,14.8052 6.7374,14.4522 L1.2444,8.6602 C-0.4786,6.8432 -0.4026,3.8522 1.4114,2.1292 C2.1974,1.3832 3.2204,0.9882 4.3284,1.0162 C5.5104,1.0472 6.6684,1.5722 7.5074,2.4572 L7.9924,2.9692 L8.4934,2.4412 C9.3314,1.5572 10.4894,1.0322 11.6704,1.0012 C12.7654,0.9762 13.8024,1.3682 14.5884,2.1132 L14.5894,2.1132 C16.4024,3.8362 16.4784,6.8272 14.7554,8.6442 L13.7954,9.6572 C13.7804,9.6802 13.7634,9.7012 13.7434,9.7212 L9.2574,14.4522 C8.9234,14.8052 8.4754,14.9992 7.9974,14.9992" id="fill"></path>
        </g>
    </g>
</svg>

<svg width="16" height="16" xmlns="http://www.w3.org/2000/svg"><path d="M4.218 2.015c-.797 0-1.546.296-2.117.838-1.422 1.35-1.48 3.695-.13 5.12l5.492 5.791a.74.74 0 001.068 0l4.43-4.67a.455.455 0 01.051-.065l1.017-1.072c1.351-1.425 1.291-3.769-.13-5.119a3.059 3.059 0 00-2.203-.837c-.917.024-1.819.435-2.477 1.128l-.863.91c-.189.2-.538.2-.727 0l-.848-.895C6.122 2.452 5.22 2.04 4.302 2.016h-.084m3.78 12.983c-.479 0-.927-.194-1.26-.547L1.243 8.66c-1.723-1.817-1.647-4.808.167-6.53a4.035 4.035 0 012.917-1.114c1.182.031 2.34.556 3.18 1.441l.484.512.501-.528c.838-.884 1.996-1.409 3.177-1.44a4.074 4.074 0 012.918 1.112h.001c1.813 1.723 1.89 4.714.166 6.531l-.96 1.013a.394.394 0 01-.052.064l-4.486 4.731a1.722 1.722 0 01-1.26.547" fill="#171B1F" fill-rule="evenodd"/></svg>
